dist/img/svg/services/design.svg

<svg width="20" height="20" viewBox="0 0 20 20" fill="none" xmlns="http://www.w3.org/2000/svg">
<g clip-path="url(#clip0_86_1804)">
<path d="M19.8265 14.5515L17.7765 13.5265L16.4718 10.1328C16.4565 10.0926 16.433 10.0561 16.4029 10.0255C16.3728 9.99481 16.3367 9.9707 16.2968 9.95463L8.20151 6.7187C8.14491 6.69616 8.08296 6.69066 8.02327 6.70288C7.96359 6.71509 7.90877 6.74449 7.86558 6.78745L6.78589 7.86713C6.7435 7.91037 6.71458 7.96499 6.70266 8.02435C6.69073 8.08371 6.6963 8.14526 6.7187 8.20151L9.95464 16.2968C9.9707 16.3367 9.99481 16.3728 10.0255 16.4029C10.0561 16.433 10.0926 16.4565 10.1328 16.4718L13.5265 17.7765L14.5515 19.8265C14.5731 19.8717 14.6052 19.9111 14.6452 19.9412C14.6852 19.9714 14.7318 19.9916 14.7812 19.9999C14.7978 20.0015 14.8146 20.0015 14.8312 19.9999C14.9139 19.9996 14.9932 19.9664 15.0515 19.9078L19.9078 15.0515C19.9435 15.017 19.9705 14.9745 19.9865 14.9275C20.0026 14.8805 20.0072 14.8303 20 14.7812C19.9916 14.7318 19.9714 14.6852 19.9412 14.6452C19.9111 14.6052 19.8717 14.5731 19.8265 14.5515ZM7.37339 8.16088L7.54683 7.98901L11.5765 12.0187C11.3109 12.395 11.1962 12.8573 11.2551 13.3141C11.314 13.7709 11.5421 14.189 11.8944 14.4857C12.2467 14.7824 12.6974 14.9361 13.1576 14.9165C13.6178 14.8968 14.0538 14.7052 14.3795 14.3795C14.7052 14.0538 14.8968 13.6178 14.9165 13.1576C14.9361 12.6974 14.7824 12.2466 14.4857 11.8944C14.189 11.5421 13.7709 11.314 13.3141 11.2551C12.8573 11.1962 12.395 11.3109 12.0187 11.5765L7.98901 7.54682L8.16089 7.37338L15.9375 10.4843L17.164 13.6749L13.675 17.164L10.4843 15.9374L7.37339 8.16088ZM13.0781 11.864C13.3589 11.8644 13.631 11.9622 13.8478 12.1407C14.0647 12.3192 14.2129 12.5673 14.2673 12.8429C14.3217 13.1184 14.2789 13.4043 14.1462 13.6518C14.0135 13.8993 13.7991 14.0932 13.5394 14.2003C13.2798 14.3075 12.9911 14.3213 12.7224 14.2394C12.4538 14.1576 12.2218 13.9851 12.066 13.7514C11.9103 13.5177 11.8403 13.2372 11.8682 12.9577C11.896 12.6783 12.0199 12.4171 12.2187 12.2187C12.4468 11.9913 12.7559 11.8637 13.0781 11.864ZM14.9171 19.1593L14.1359 17.5968L17.5937 14.139L19.1562 14.9203L14.9171 19.1593Z" fill="#78C081"/>
<path d="M5.97655 16.7187C5.91679 16.6622 5.83768 16.6308 5.75545 16.6308C5.67323 16.6308 5.59412 16.6622 5.53436 16.7187L5.13749 17.1156C4.07839 15.6782 3.49412 13.9461 3.46612 12.1609C3.43811 10.3757 3.96775 8.62615 4.98124 7.15622C5.28487 7.32329 5.63448 7.38748 5.97767 7.33914C6.32085 7.2908 6.63913 7.13256 6.88481 6.88811C7.13049 6.64366 7.29034 6.32618 7.3404 5.98324C7.39046 5.64031 7.32804 5.29038 7.16249 4.9859C8.63242 3.97242 10.3819 3.44278 12.1672 3.47078C13.9524 3.49879 15.6844 4.08306 17.1219 5.14215L16.7187 5.53434C16.6606 5.59293 16.628 5.67213 16.6281 5.75465C16.6279 5.79578 16.6358 5.83655 16.6513 5.87462C16.6669 5.9127 16.6898 5.94733 16.7187 5.97653L18.0969 7.34372C18.1554 7.40192 18.2346 7.43459 18.3172 7.43459C18.3997 7.43459 18.4789 7.40192 18.5375 7.34372L19.9078 5.9734C19.9369 5.94438 19.9599 5.90992 19.9756 5.87198C19.9914 5.83404 19.9995 5.79338 19.9995 5.75231C19.9995 5.71124 19.9914 5.67058 19.9756 5.63264C19.9599 5.5947 19.9369 5.56024 19.9078 5.53122L18.5375 4.1609C18.4789 4.1027 18.3997 4.07003 18.3172 4.07003C18.2346 4.07003 18.1554 4.1027 18.0969 4.1609L17.5672 4.68747C16.2617 3.70512 14.7183 3.08793 13.0955 2.89928C11.4726 2.71064 9.82879 2.95733 8.3328 3.61403L10.1344 1.81715C10.3386 1.91476 10.5709 1.93685 10.7899 1.87952C11.0089 1.82218 11.2005 1.68912 11.3308 1.50393C11.461 1.31875 11.5214 1.09343 11.5013 0.867926C11.4812 0.642426 11.3819 0.431332 11.221 0.272094C11.0601 0.112856 10.8479 0.0157682 10.6222 -0.00194524C10.3965 -0.0196587 10.1719 0.0431474 9.98807 0.175331C9.80428 0.307514 9.67324 0.500529 9.61821 0.720133C9.56319 0.939738 9.58773 1.17173 9.68749 1.37497L6.64686 4.42028C6.33813 4.21319 5.96708 4.11971 5.59709 4.15581C5.2271 4.19192 4.88111 4.35536 4.61825 4.61823C4.35538 4.8811 4.19193 5.22708 4.15583 5.59707C4.11973 5.96706 4.2132 6.33812 4.4203 6.64684L1.37498 9.68747C1.17096 9.58805 0.938291 9.56418 0.718329 9.62011C0.498368 9.67604 0.305357 9.80814 0.173594 9.99293C0.041831 10.1777 -0.0201499 10.4033 -0.00133502 10.6294C0.0174799 10.8556 0.115872 11.0678 0.276357 11.2283C0.436843 11.3888 0.649027 11.4872 0.875206 11.506C1.10139 11.5248 1.32691 11.4628 1.51171 11.331C1.6965 11.1993 1.8286 11.0063 1.88453 10.7863C1.94046 10.5663 1.91659 10.3337 1.81717 10.1297L3.61873 8.33278C2.96138 9.82836 2.71391 11.472 2.90173 13.0948C3.08955 14.7176 3.7059 16.2613 4.68749 17.5672L4.15936 18.0968C4.10116 18.1554 4.06849 18.2346 4.06849 18.3172C4.06849 18.3997 4.10116 18.4789 4.15936 18.5375L5.52967 19.9078C5.58801 19.9665 5.66724 19.9996 5.74999 20C5.79122 20 5.83206 19.9919 5.87014 19.976C5.90822 19.9602 5.94279 19.937 5.97186 19.9078L7.34374 18.5375C7.40194 18.4789 7.43461 18.3997 7.43461 18.3172C7.43461 18.2346 7.40194 18.1554 7.34374 18.0968L5.97655 16.7187ZM18.3203 4.82028L19.2484 5.7484L18.3203 6.67653L17.3922 5.7484L18.3203 4.82028ZM10.3125 0.723404C10.3589 0.676588 10.4182 0.644622 10.4829 0.631561C10.5475 0.618499 10.6145 0.624932 10.6755 0.650042C10.7365 0.675152 10.7886 0.717808 10.8253 0.772597C10.862 0.827386 10.8816 0.891839 10.8816 0.957779C10.8816 1.02372 10.862 1.08817 10.8253 1.14296C10.7886 1.19775 10.7365 1.24041 10.6755 1.26552C10.6145 1.29063 10.5475 1.29706 10.4829 1.284C10.4182 1.27094 10.3589 1.23897 10.3125 1.19215C10.2817 1.16139 10.2572 1.12485 10.2406 1.08464C10.2239 1.04442 10.2153 1.00131 10.2153 0.957779C10.2153 0.914244 10.2239 0.871136 10.2406 0.83092C10.2572 0.790704 10.2817 0.754169 10.3125 0.723404ZM5.06249 5.06247C5.15323 4.97129 5.26109 4.89894 5.37988 4.84957C5.49866 4.8002 5.62604 4.77478 5.75467 4.77478C5.88331 4.77478 6.01068 4.8002 6.12947 4.84957C6.24826 4.89894 6.35612 4.97129 6.44686 5.06247C6.58403 5.19942 6.67749 5.37398 6.71542 5.56406C6.75335 5.75414 6.73404 5.95121 6.65994 6.13031C6.58583 6.30942 6.46026 6.46252 6.29912 6.57024C6.13798 6.67796 5.9485 6.73545 5.75467 6.73545C5.56084 6.73545 5.37137 6.67796 5.21022 6.57024C5.04908 6.46252 4.92351 6.30942 4.84941 6.13031C4.7753 5.95121 4.756 5.75414 4.79392 5.56406C4.83185 5.37398 4.92532 5.19942 5.06249 5.06247ZM1.19373 10.7812C1.12994 10.8344 1.04855 10.8618 0.965561 10.8581C0.882574 10.8543 0.80399 10.8197 0.745249 10.761C0.686509 10.7022 0.65186 10.6236 0.64811 10.5406C0.64436 10.4577 0.671781 10.3763 0.724985 10.3125C0.787517 10.251 0.871684 10.2166 0.95936 10.2166C1.04703 10.2166 1.1312 10.251 1.19373 10.3125C1.22454 10.3432 1.24897 10.3798 1.26565 10.42C1.28232 10.4602 1.2909 10.5033 1.2909 10.5468C1.2909 10.5904 1.28232 10.6335 1.26565 10.6737C1.24897 10.7139 1.22454 10.7505 1.19373 10.7812ZM5.75467 19.239L4.82655 18.3109L5.75467 17.3828L6.6828 18.3109L5.75467 19.239Z" fill="#78C081"/>
</g>
<defs>
<clipPath id="clip0_86_1804">
<rect width="20" height="20" fill="white"/>
</clipPath>
</defs>
</svg>

<svg width="20" height="20" fill="none" xmlns="http://www.w3.org/2000/svg"><g clip-path="url(#clip0_86_1804)" fill="#78C081"><path d="M19.826 14.552l-2.05-1.025-1.304-3.394a.31.31 0 00-.175-.178L8.202 6.719a.312.312 0 00-.336.068l-1.08 1.08a.312.312 0 00-.067.335l3.236 8.095a.311.311 0 00.178.175l3.394 1.304 1.025 2.05a.312.312 0 00.23.174.261.261 0 00.05 0 .313.313 0 00.22-.092l4.856-4.857a.313.313 0 00.092-.27.313.313 0 00-.174-.23zM7.373 8.16l.174-.172 4.03 4.03a1.839 1.839 0 10.442-.443l-4.03-4.03.172-.173 7.777 3.111 1.226 3.19-3.489 3.49-3.19-1.227L7.373 8.16zm5.705 3.703a1.214 1.214 0 11-.003 2.428 1.214 1.214 0 01.003-2.428zm1.84 7.295l-.782-1.562 3.458-3.458 1.562.781-4.239 4.24z"/><path d="M5.977 16.719a.322.322 0 00-.443 0l-.397.397a8.58 8.58 0 01-.156-9.96 1.603 1.603 0 002.181-2.17 8.58 8.58 0 019.96.156l-.403.392a.312.312 0 000 .443l1.378 1.367a.312.312 0 00.44 0l1.37-1.37a.311.311 0 000-.443l-1.37-1.37a.313.313 0 00-.44 0l-.53.526a9.205 9.205 0 00-9.234-1.073l1.801-1.797a.958.958 0 10-.447-.442L6.647 4.42A1.605 1.605 0 004.42 6.647l-3.045 3.04a.96.96 0 10.442.443L3.62 8.333a9.205 9.205 0 001.068 9.234l-.528.53a.313.313 0 000 .44l1.37 1.37a.313.313 0 00.443 0l1.372-1.37a.313.313 0 000-.44l-1.367-1.378zM18.32 4.82l.928.928-.928.929-.928-.929.928-.928zM10.312.723a.333.333 0 11.473.469.333.333 0 01-.473-.469zm-5.25 4.34a.976.976 0 011.653.501.98.98 0 11-1.653-.502zM1.194 10.78a.333.333 0 01-.469-.469.334.334 0 01.54.108.331.331 0 01-.071.361zm4.56 8.458l-.927-.928.928-.928.928.928-.928.928z"/></g><defs><clipPath id="clip0_86_1804"><path fill="#fff" d="M0 0h20v20H0z"/></clipPath></defs></svg>
